img/quote.svg

<svg width="194" height="160" viewBox="0 0 194 160" fill="none" xmlns="http://www.w3.org/2000/svg">
<path d="M130.627 85.5783C129.719 82.3216 129.258 78.5823 129.258 74.3492C129.258 62.731 133.644 51.2583 142.523 39.9148C151.824 28.5534 162.725 20.2544 175.227 14.9931L176.209 14.5796L175.734 13.6255L170.218 2.55405L169.784 1.68412L168.902 2.09261C147.518 11.9973 131.422 25.232 120.677 41.8214L120.672 41.8289L120.667 41.8364C110.347 58.407 105.194 77.0446 105.194 97.7222C105.194 113.86 108.699 127.585 115.765 138.848C124.126 152.272 136.507 159 152.774 159C164.055 159 173.509 155.216 181.063 147.634C189.015 139.655 193 129.969 193 118.635C193 106.514 189.035 96.802 181.044 89.6158C173.493 82.0477 164.045 78.2698 152.774 78.2698C144.471 78.2698 137.077 80.7075 130.627 85.5783ZM26.4338 85.5783C25.5259 82.3216 25.0645 78.5823 25.0645 74.3492C25.0645 62.731 29.4501 51.2583 38.3291 39.9147C47.6306 28.5533 58.5315 20.2543 71.0331 14.9931L72.0156 14.5796L71.5402 13.6255L66.0241 2.55405L65.5907 1.68412L64.7088 2.09261C43.3245 11.9973 27.2282 25.232 16.4833 41.8214L16.4784 41.8289L16.4737 41.8364C6.15378 58.407 1 77.0446 1 97.7222C1 113.859 4.50541 127.584 11.5709 138.847C19.9323 152.272 32.313 159 48.5807 159C59.8614 159 69.3153 155.216 76.8697 147.634C84.8213 139.655 88.8064 129.969 88.8064 118.635C88.8064 106.514 84.8415 96.802 76.8501 89.6158C69.2989 82.0477 59.8516 78.2698 48.5807 78.2698C40.2774 78.2698 32.8837 80.7075 26.4338 85.5783Z" stroke="#72BF24" stroke-width="2"/>
</svg>

<svg width="194" height="160" fill="none" xmlns="http://www.w3.org/2000/svg"><path d="M130.627 85.578c-.908-3.256-1.369-6.996-1.369-11.229 0-11.618 4.386-23.09 13.265-34.434 9.301-11.362 20.202-19.66 32.704-24.922l.982-.413-.475-.954-5.516-11.072-.434-.87-.882.409c-21.384 9.904-37.48 23.139-48.225 39.728l-.005.008-.005.007c-10.32 16.571-15.473 35.209-15.473 55.886 0 16.138 3.505 29.863 10.571 41.126C124.126 152.272 136.507 159 152.774 159c11.281 0 20.735-3.784 28.289-11.366 7.952-7.979 11.937-17.665 11.937-28.999 0-12.121-3.965-21.833-11.956-29.02-7.551-7.567-16.999-11.345-28.27-11.345-8.303 0-15.697 2.438-22.147 7.308zm-104.193 0c-.908-3.256-1.37-6.996-1.37-11.229 0-11.618 4.386-23.09 13.265-34.434 9.302-11.362 20.203-19.66 32.704-24.922l.983-.413-.476-.954-5.516-11.072-.433-.87-.882.409c-21.385 9.904-37.48 23.139-48.226 39.728l-.005.008-.004.007C6.154 58.407 1 77.045 1 97.722c0 16.137 3.505 29.862 10.57 41.125C19.933 152.272 32.314 159 48.58 159c11.281 0 20.735-3.784 28.29-11.366 7.951-7.979 11.936-17.665 11.936-28.999 0-12.121-3.965-21.833-11.956-29.02C69.3 82.049 59.852 78.27 48.58 78.27c-8.303 0-15.696 2.438-22.146 7.308z" stroke="#72BF24" stroke-width="2"/></svg>
